images/2782.svg

<?xml version="1.0" encoding="UTF-8"?>
<svg xmlns="http://www.w3.org/2000/svg" xmlns:xlink="http://www.w3.org/1999/xlink" width="300pt" height="300pt" viewBox="0 0 300 300" version="1.1">
<defs>
<g>
<symbol overflow="visible" id="glyph0-0">
<path style="stroke:none;" d="M 0.796875 2.828125 L 0.796875 -11.28125 L 8.796875 -11.28125 L 8.796875 2.828125 Z M 1.703125 1.9375 L 7.90625 1.9375 L 7.90625 -10.390625 L 1.703125 -10.390625 Z M 1.703125 1.9375 "/>
</symbol>
<symbol overflow="visible" id="glyph0-1">
<path style="stroke:none;" d="M 1.578125 -11.671875 L 3.703125 -11.671875 L 8.875 -1.90625 L 8.875 -11.671875 L 10.40625 -11.671875 L 10.40625 0 L 8.28125 0 L 3.109375 -9.765625 L 3.109375 0 L 1.578125 0 Z M 1.578125 -11.671875 "/>
</symbol>
<symbol overflow="visible" id="glyph0-2">
<path style="stroke:none;" d="M 10.3125 -10.765625 L 10.3125 -9.109375 C 9.78125 -9.597656 9.210938 -9.960938 8.609375 -10.203125 C 8.003906 -10.453125 7.363281 -10.578125 6.6875 -10.578125 C 5.351562 -10.578125 4.332031 -10.171875 3.625 -9.359375 C 2.914062 -8.546875 2.5625 -7.367188 2.5625 -5.828125 C 2.5625 -4.285156 2.914062 -3.109375 3.625 -2.296875 C 4.332031 -1.484375 5.351562 -1.078125 6.6875 -1.078125 C 7.363281 -1.078125 8.003906 -1.195312 8.609375 -1.4375 C 9.210938 -1.6875 9.78125 -2.054688 10.3125 -2.546875 L 10.3125 -0.90625 C 9.757812 -0.53125 9.171875 -0.242188 8.546875 -0.046875 C 7.929688 0.140625 7.28125 0.234375 6.59375 0.234375 C 4.832031 0.234375 3.441406 -0.304688 2.421875 -1.390625 C 1.410156 -2.472656 0.90625 -3.953125 0.90625 -5.828125 C 0.90625 -7.703125 1.410156 -9.175781 2.421875 -10.25 C 3.441406 -11.332031 4.832031 -11.875 6.59375 -11.875 C 7.289062 -11.875 7.945312 -11.78125 8.5625 -11.59375 C 9.1875 -11.414062 9.769531 -11.140625 10.3125 -10.765625 Z M 10.3125 -10.765625 "/>
</symbol>
<symbol overflow="visible" id="glyph0-3">
<path style="stroke:none;" d="M 1.515625 -12.15625 L 2.953125 -12.15625 L 2.953125 0 L 1.515625 0 Z M 1.515625 -12.15625 "/>
</symbol>
</g>
</defs>
<g id="surface42941">
<rect x="0" y="0" width="300" height="300" style="fill:rgb(100%,100%,100%);fill-opacity:1;stroke:none;"/>
<path style="fill:none;stroke-width:1.2;stroke-linecap:butt;stroke-linejoin:miter;stroke:rgb(0%,0%,0%);stroke-opacity:1;stroke-miterlimit:10;" d="M 69.789062 80.308594 L 32.636719 89.40625 "/>
<path style="fill:none;stroke-width:1.2;stroke-linecap:butt;stroke-linejoin:miter;stroke:rgb(0%,0%,0%);stroke-opacity:1;stroke-miterlimit:10;" d="M 89.925781 112.828125 L 69.789062 80.308594 "/>
<path style="fill:none;stroke-width:1.2;stroke-linecap:butt;stroke-linejoin:miter;stroke:rgb(0%,0%,0%);stroke-opacity:1;stroke-miterlimit:10;" d="M 32.636719 89.40625 L 29.8125 127.554688 "/>
<path style="fill:none;stroke-width:1.2;stroke-linecap:butt;stroke-linejoin:miter;stroke:rgb(0%,0%,0%);stroke-opacity:1;stroke-miterlimit:10;" d="M 29.8125 127.554688 L 47.515625 134.792969 "/>
<path style="fill:none;stroke-width:1.2;stroke-linecap:butt;stroke-linejoin:miter;stroke:rgb(0%,0%,100%);stroke-opacity:1;stroke-miterlimit:10;" d="M 47.515625 134.792969 L 65.214844 142.027344 "/>
<path style="fill:none;stroke-width:1.2;stroke-linecap:butt;stroke-linejoin:miter;stroke:rgb(0%,0%,100%);stroke-opacity:1;stroke-miterlimit:10;" d="M 65.214844 142.027344 L 77.570312 127.429688 "/>
<path style="fill:none;stroke-width:1.2;stroke-linecap:butt;stroke-linejoin:miter;stroke:rgb(0%,0%,0%);stroke-opacity:1;stroke-miterlimit:10;" d="M 77.570312 127.429688 L 89.925781 112.828125 "/>
<path style="fill:none;stroke-width:1.2;stroke-linecap:butt;stroke-linejoin:miter;stroke:rgb(0%,0%,100%);stroke-opacity:1;stroke-miterlimit:10;" d="M 65.214844 142.027344 L 69.765625 160.605469 "/>
<path style="fill:none;stroke-width:1.2;stroke-linecap:butt;stroke-linejoin:miter;stroke:rgb(0%,0%,0%);stroke-opacity:1;stroke-miterlimit:10;" d="M 69.765625 160.605469 L 74.316406 179.179688 "/>
<path style=" stroke:none;fill-rule:nonzero;fill:rgb(100%,100%,100%);fill-opacity:1;" d="M 59.214844 132.527344 L 71.214844 132.527344 L 71.214844 151.527344 L 59.214844 151.527344 Z M 59.214844 132.527344 "/>
<g style="fill:rgb(0%,0%,100%);fill-opacity:1;">
  <use xlink:href="#glyph0-1" x="59.214844" y="147.378906"/>
</g>
<path style="fill:none;stroke-width:1.2;stroke-linecap:butt;stroke-linejoin:miter;stroke:rgb(0%,0%,0%);stroke-opacity:1;stroke-miterlimit:10;" d="M 74.316406 179.179688 L 111.039062 189.875 "/>
<path style="fill:none;stroke-width:1.2;stroke-linecap:butt;stroke-linejoin:miter;stroke:rgb(0%,0%,0%);stroke-opacity:1;stroke-miterlimit:10;" d="M 111.039062 189.875 L 117.507812 207.875 "/>
<path style="fill:none;stroke-width:1.2;stroke-linecap:butt;stroke-linejoin:miter;stroke:rgb(0%,0%,100%);stroke-opacity:1;stroke-miterlimit:10;" d="M 117.507812 207.875 L 123.972656 225.871094 "/>
<path style="fill:none;stroke-width:1.2;stroke-linecap:butt;stroke-linejoin:miter;stroke:rgb(0%,0%,0%);stroke-opacity:1;stroke-miterlimit:10;" d="M 120.804688 190.433594 L 125.976562 204.832031 "/>
<path style="fill:none;stroke-width:1.2;stroke-linecap:butt;stroke-linejoin:miter;stroke:rgb(0%,0%,100%);stroke-opacity:1;stroke-miterlimit:10;" d="M 125.976562 204.832031 L 131.152344 219.230469 "/>
<path style="fill:none;stroke-width:1.2;stroke-linecap:butt;stroke-linejoin:miter;stroke:rgb(0%,0%,100%);stroke-opacity:1;stroke-miterlimit:10;" d="M 141.28125 166.453125 L 126.160156 178.164062 "/>
<path style="fill:none;stroke-width:1.2;stroke-linecap:butt;stroke-linejoin:miter;stroke:rgb(0%,0%,0%);stroke-opacity:1;stroke-miterlimit:10;" d="M 126.160156 178.164062 L 111.039062 189.875 "/>
<path style="fill:none;stroke-width:1.2;stroke-linecap:butt;stroke-linejoin:miter;stroke:rgb(0%,0%,100%);stroke-opacity:1;stroke-miterlimit:10;" d="M 123.972656 225.871094 L 143.089844 225.285156 "/>
<path style="fill:none;stroke-width:1.2;stroke-linecap:butt;stroke-linejoin:miter;stroke:rgb(0%,0%,0%);stroke-opacity:1;stroke-miterlimit:10;" d="M 143.089844 225.285156 L 162.207031 224.695312 "/>
<path style=" stroke:none;fill-rule:nonzero;fill:rgb(100%,100%,100%);fill-opacity:1;" d="M 117.972656 216.371094 L 129.972656 216.371094 L 129.972656 235.371094 L 117.972656 235.371094 Z M 117.972656 216.371094 "/>
<g style="fill:rgb(0%,0%,100%);fill-opacity:1;">
  <use xlink:href="#glyph0-1" x="117.972656" y="231.222656"/>
</g>
<path style="fill:none;stroke-width:1.2;stroke-linecap:butt;stroke-linejoin:miter;stroke:rgb(0%,0%,0%);stroke-opacity:1;stroke-miterlimit:10;" d="M 162.207031 224.695312 L 188.664062 252.320312 "/>
<path style="fill:none;stroke-width:1.2;stroke-linecap:butt;stroke-linejoin:miter;stroke:rgb(0%,0%,0%);stroke-opacity:1;stroke-miterlimit:10;" d="M 171.351562 221.234375 L 192.515625 243.332031 "/>
<path style="fill:none;stroke-width:1.2;stroke-linecap:butt;stroke-linejoin:miter;stroke:rgb(0%,0%,0%);stroke-opacity:1;stroke-miterlimit:10;" d="M 172.902344 187.972656 L 162.207031 224.695312 "/>
<path style="fill:none;stroke-width:1.2;stroke-linecap:butt;stroke-linejoin:miter;stroke:rgb(0%,0%,0%);stroke-opacity:1;stroke-miterlimit:10;" d="M 188.664062 252.320312 L 225.816406 243.21875 "/>
<path style="fill:none;stroke-width:1.2;stroke-linecap:butt;stroke-linejoin:miter;stroke:rgb(0%,0%,0%);stroke-opacity:1;stroke-miterlimit:10;" d="M 225.816406 243.21875 L 236.511719 206.496094 "/>
<path style="fill:none;stroke-width:1.2;stroke-linecap:butt;stroke-linejoin:miter;stroke:rgb(0%,0%,0%);stroke-opacity:1;stroke-miterlimit:10;" d="M 218.242188 237.03125 L 226.800781 207.652344 "/>
<path style="fill:none;stroke-width:1.2;stroke-linecap:butt;stroke-linejoin:miter;stroke:rgb(0%,0%,0%);stroke-opacity:1;stroke-miterlimit:10;" d="M 236.511719 206.496094 L 210.054688 178.871094 "/>
<path style="fill:none;stroke-width:1.2;stroke-linecap:butt;stroke-linejoin:miter;stroke:rgb(0%,0%,0%);stroke-opacity:1;stroke-miterlimit:10;" d="M 210.054688 178.871094 L 172.902344 187.972656 "/>
<path style="fill:none;stroke-width:1.2;stroke-linecap:butt;stroke-linejoin:miter;stroke:rgb(0%,0%,0%);stroke-opacity:1;stroke-miterlimit:10;" d="M 208.480469 188.523438 L 178.757812 195.804688 "/>
<path style="fill:none;stroke-width:1.2;stroke-linecap:butt;stroke-linejoin:miter;stroke:rgb(0%,0%,0%);stroke-opacity:1;stroke-miterlimit:10;" d="M 172.902344 187.972656 L 157.089844 177.210938 "/>
<path style="fill:none;stroke-width:1.2;stroke-linecap:butt;stroke-linejoin:miter;stroke:rgb(0%,0%,100%);stroke-opacity:1;stroke-miterlimit:10;" d="M 157.089844 177.210938 L 141.28125 166.453125 "/>
<path style="fill:none;stroke-width:1.2;stroke-linecap:butt;stroke-linejoin:miter;stroke:rgb(0%,0%,100%);stroke-opacity:1;stroke-miterlimit:10;" d="M 141.28125 166.453125 L 140.691406 147.335938 "/>
<path style="fill:none;stroke-width:1.2;stroke-linecap:butt;stroke-linejoin:miter;stroke:rgb(0%,0%,0%);stroke-opacity:1;stroke-miterlimit:10;" d="M 140.691406 147.335938 L 140.101562 128.21875 "/>
<path style=" stroke:none;fill-rule:nonzero;fill:rgb(100%,100%,100%);fill-opacity:1;" d="M 135.28125 156.953125 L 147.28125 156.953125 L 147.28125 175.953125 L 135.28125 175.953125 Z M 135.28125 156.953125 "/>
<g style="fill:rgb(0%,0%,100%);fill-opacity:1;">
  <use xlink:href="#glyph0-1" x="135.28125" y="171.804688"/>
</g>
<path style="fill:none;stroke-width:1.2;stroke-linecap:butt;stroke-linejoin:miter;stroke:rgb(0%,0%,0%);stroke-opacity:1;stroke-miterlimit:10;" d="M 140.101562 128.21875 L 172.625 108.085938 "/>
<path style="fill:none;stroke-width:1.2;stroke-linecap:butt;stroke-linejoin:miter;stroke:rgb(0%,0%,0%);stroke-opacity:1;stroke-miterlimit:10;" d="M 172.625 108.085938 L 206.324219 126.179688 "/>
<path style="fill:none;stroke-width:1.2;stroke-linecap:butt;stroke-linejoin:miter;stroke:rgb(0%,0%,0%);stroke-opacity:1;stroke-miterlimit:10;" d="M 180.253906 101.964844 L 207.210938 116.441406 "/>
<path style="fill:none;stroke-width:1.2;stroke-linecap:butt;stroke-linejoin:miter;stroke:rgb(0%,0%,0%);stroke-opacity:1;stroke-miterlimit:10;" d="M 171.449219 69.851562 L 172.625 108.085938 "/>
<path style="fill:none;stroke-width:1.2;stroke-linecap:butt;stroke-linejoin:miter;stroke:rgb(0%,0%,0%);stroke-opacity:1;stroke-miterlimit:10;" d="M 206.324219 126.179688 L 238.84375 106.046875 "/>
<path style="fill:none;stroke-width:1.2;stroke-linecap:butt;stroke-linejoin:miter;stroke:rgb(0%,0%,0%);stroke-opacity:1;stroke-miterlimit:10;" d="M 238.84375 106.046875 L 237.667969 67.816406 "/>
<path style="fill:none;stroke-width:1.2;stroke-linecap:butt;stroke-linejoin:miter;stroke:rgb(0%,0%,0%);stroke-opacity:1;stroke-miterlimit:10;" d="M 229.730469 102.5 L 228.789062 71.914062 "/>
<path style="fill:none;stroke-width:1.2;stroke-linecap:butt;stroke-linejoin:miter;stroke:rgb(0%,0%,0%);stroke-opacity:1;stroke-miterlimit:10;" d="M 237.667969 67.816406 L 203.96875 49.71875 "/>
<path style="fill:none;stroke-width:1.2;stroke-linecap:butt;stroke-linejoin:miter;stroke:rgb(0%,0%,0%);stroke-opacity:1;stroke-miterlimit:10;" d="M 237.667969 67.816406 L 253.929688 57.746094 "/>
<path style="fill:none;stroke-width:1.2;stroke-linecap:butt;stroke-linejoin:miter;stroke:rgb(0%,80%,0%);stroke-opacity:1;stroke-miterlimit:10;" d="M 253.929688 57.746094 L 270.1875 47.679688 "/>
<path style="fill:none;stroke-width:1.2;stroke-linecap:butt;stroke-linejoin:miter;stroke:rgb(0%,0%,0%);stroke-opacity:1;stroke-miterlimit:10;" d="M 203.96875 49.71875 L 171.449219 69.851562 "/>
<path style="fill:none;stroke-width:1.2;stroke-linecap:butt;stroke-linejoin:miter;stroke:rgb(0%,0%,0%);stroke-opacity:1;stroke-miterlimit:10;" d="M 205.453125 59.382812 L 179.4375 75.492188 "/>
<path style=" stroke:none;fill-rule:nonzero;fill:rgb(100%,100%,100%);fill-opacity:1;" d="M 262.1875 38.179688 L 278.1875 38.179688 L 278.1875 57.179688 L 262.1875 57.179688 Z M 262.1875 38.179688 "/>
<g style="fill:rgb(0%,80%,0%);fill-opacity:1;">
  <use xlink:href="#glyph0-2" x="262.1875" y="53.03125"/>
  <use xlink:href="#glyph0-3" x="273.359375" y="53.03125"/>
</g>
</g>
</svg>

<svg xmlns="http://www.w3.org/2000/svg" xmlns:xlink="http://www.w3.org/1999/xlink" width="300pt" height="300pt" viewBox="0 0 300 300"><defs><symbol overflow="visible"><path d="M.797 2.828v-14.11h8V2.83zm.906-.89h6.203v-12.33H1.703zm0 0"/></symbol><symbol overflow="visible" id="a"><path d="M1.578-11.672h2.125l5.172 9.766v-9.766h1.53V0H8.282L3.11-9.766V0H1.577zm0 0"/></symbol><symbol overflow="visible" id="b"><path d="M10.313-10.766v1.657c-.532-.488-1.102-.85-1.704-1.093-.606-.25-1.247-.375-1.922-.375-1.336 0-2.356.406-3.063 1.22-.71.81-1.063 1.99-1.063 3.53 0 1.543.352 2.72 1.063 3.53.707.814 1.727 1.22 3.063 1.22.675 0 1.316-.117 1.92-.36.603-.25 1.173-.617 1.704-1.11v1.642c-.554.375-1.14.664-1.765.86-.617.187-1.266.28-1.953.28-1.762 0-3.153-.54-4.172-1.625C1.41-2.474.906-3.954.906-5.83c0-1.875.504-3.348 1.516-4.422 1.02-1.082 2.41-1.625 4.172-1.625.695 0 1.35.094 1.968.28.626.18 1.208.454 1.75.83zm0 0"/></symbol><symbol overflow="visible" id="c"><path d="M1.516-12.156h1.437V0H1.516zm0 0"/></symbol></defs><g><path fill="#fff" d="M0 0h300v300H0z"/><path d="M69.79 80.31l-37.153 9.096M89.926 112.828L69.79 80.308M32.637 89.406l-2.825 38.15M29.813 127.555l17.703 7.238" stroke-width="1.2" stroke="#000" stroke-miterlimit="10" fill="none"/><path d="M47.516 134.793l17.7 7.234M65.215 142.027L77.57 127.43" stroke-width="1.2" stroke="#00f" stroke-miterlimit="10" fill="none"/><path d="M77.57 127.43l12.356-14.602" stroke-width="1.2" stroke="#000" stroke-miterlimit="10" fill="none"/><path d="M65.215 142.027l4.55 18.578" stroke-width="1.2" stroke="#00f" stroke-miterlimit="10" fill="none"/><path d="M69.766 160.605l4.55 18.575" stroke-width="1.2" stroke="#000" stroke-miterlimit="10" fill="none"/><path d="M59.215 132.527h12v19h-12zm0 0" fill="#fff"/><use xlink:href="#a" x="59.215" y="147.379" fill="#00f"/><path d="M74.316 179.18l36.723 10.695M111.04 189.875l6.468 18" stroke-width="1.2" stroke="#000" stroke-miterlimit="10" fill="none"/><path d="M117.508 207.875l6.465 17.996" stroke-width="1.2" stroke="#00f" stroke-miterlimit="10" fill="none"/><path d="M120.805 190.434l5.172 14.398" stroke-width="1.2" stroke="#000" stroke-miterlimit="10" fill="none"/><path d="M125.977 204.832l5.175 14.398M141.28 166.453l-15.12 11.71" stroke-width="1.2" stroke="#00f" stroke-miterlimit="10" fill="none"/><path d="M126.16 178.164l-15.12 11.71" stroke-width="1.2" stroke="#000" stroke-miterlimit="10" fill="none"/><path d="M123.973 225.87l19.117-.585" stroke-width="1.2" stroke="#00f" stroke-miterlimit="10" fill="none"/><path d="M143.09 225.285l19.117-.59" stroke-width="1.2" stroke="#000" stroke-miterlimit="10" fill="none"/><path d="M117.973 216.37h12v19h-12zm0 0" fill="#fff"/><use xlink:href="#a" x="117.973" y="231.223" fill="#00f"/><path d="M162.207 224.695l26.457 27.625M171.352 221.234l21.164 22.098M172.902 187.973l-10.695 36.722M188.664 252.32l37.152-9.1M225.816 243.22l10.696-36.724M218.242 237.03l8.56-29.378M236.512 206.496l-26.457-27.625M210.055 178.87l-37.153 9.103M208.48 188.523l-29.722 7.282M172.902 187.973L157.09 177.21" stroke-width="1.2" stroke="#000" stroke-miterlimit="10" fill="none"/><path d="M157.09 177.21l-15.81-10.757M141.28 166.453l-.59-19.117" stroke-width="1.2" stroke="#00f" stroke-miterlimit="10" fill="none"/><path d="M140.69 147.336l-.588-19.117" stroke-width="1.2" stroke="#000" stroke-miterlimit="10" fill="none"/><path d="M135.28 156.953h12v19h-12zm0 0" fill="#fff"/><use xlink:href="#a" x="135.281" y="171.805" fill="#00f"/><path d="M140.102 128.22l32.523-20.134M172.625 108.086l33.7 18.094M180.254 101.965l26.957 14.476M171.45 69.852l1.175 38.234M206.324 126.18l32.52-20.133M238.844 106.047l-1.176-38.23M229.73 102.5l-.94-30.586M237.668 67.816l-33.7-18.097M237.668 67.816l16.262-10.07" stroke-width="1.2" stroke="#000" stroke-miterlimit="10" fill="none"/><path d="M253.93 57.746l16.257-10.066" stroke-width="1.2" stroke="#0c0" stroke-miterlimit="10" fill="none"/><path d="M203.97 49.72L171.45 69.85M205.453 59.383l-26.016 16.11" stroke-width="1.2" stroke="#000" stroke-miterlimit="10" fill="none"/><path d="M262.188 38.18h16v19h-16zm0 0" fill="#fff"/><g fill="#0c0"><use xlink:href="#b" x="262.188" y="53.031"/><use xlink:href="#c" x="273.359" y="53.031"/></g></g></svg>
